X:1
T:Title
%%score { ( 1 3 ) | ( 2 4 ) }
L:1/8
Q:1/4=100
M:6/8
K:Db
V:1 treble nm="Grand Piano"
V:3 treble 
V:2 bass 
V:4 bass 
V:1
 F3 _F2 =F | G3 F3 | [CF]3 [CE]2 [CF] | D6 | D3 G2 B | [FA]3 F3 | E3 F2 E | A3- [GA]3 | F3 _F2 =F | %9
w: Joseph~G.~Johnson * *|||||||||
 G3 F3 | [_CFA]3 [DFB]2 [EF_c] | B6 | B3 c2 d | A3 d3 | [=GB]3 [_Gc]2 [GA] | %15
w: ||||||
[M:7/8] [Fd]-[Fd]-[Fd]- [Fd]3 z |[M:3/4] d3 .F3 | B3 A3 | A3 .B3 | c6 | c3 .e3 | B3 A3 | B3 .c3 | %23
w: ||||||||
 e6 | d3 .F3 | B3 A3 |[M:15/16] d3 [Ee]->[Ee] z z3/2 |[M:3/4] z [DG] [DG] .[DG]3 | %28
w: |||||
 z =A .A2 [D_F][Ad] | z A .A2 FF | z G .G2 AA | z A B .A3 |] %32
w: ||||
V:2
 [D,A,D]3 [D,=G,D]2 [D,A,D] | [D,B,D]3 [D,A,D]3 | [A,,A,]3 [A,,G,]2 [A,,A,] | [D,F,]6 | %4
 [G,B,]3 [G,B,D]2 [G,DG] | [D,D]3 [D,A,D]3 | [E,=G,D]3 [E,G,D]2 [E,D] | [A,,A,]6 | %8
 [D,A,D]3 [D,=G,D]2 [D,A,D] | [D,B,D]3 [D,A,D]3 | D,3 D,2 D, | [G,DG]6 | %12
 [=G,D_F]3 [G,CF]2 [G,B,F] | [A,DF]3 [A,DF]3 | [E,D]3 [A,E]2 [A,C] | %15
[M:7/8] [D,A,]-[D,A,]-[D,A,]- [D,A,]3 z |[M:3/4][K:treble] z F F[K:bass] F,2[K:treble] [CDF] | %17
 z D .D2 DD | z D D B,2 [DF] | C[K:bass]A,, C,E, A,B, | z E .E2 G[CEG] | z D .D2 DD | %22
 z E .E2 E[DE=G] | E[K:bass]A,, C,E, A,C | z F F[K:bass] F,2[K:treble] [CDF] | z D .D2 DD | %26
[M:15/16][K:bass] z D/-D/D z F/-F/D-D3/2 |[M:3/4] G,,B,, D, .[G,,G,]3 | z _F .F2 z [DF] | %29
 z[K:treble] F .F2[K:bass] DD | z E .E2[K:treble] G[CG] | z[K:treble] F G .F3 |] %32
V:3
 x6 | x6 | x6 | x6 | x6 | x6 | x6 | C3 z3 | x6 | x6 | x6 | x6 | x6 | x6 | x6 |[M:7/8] x7 | %16
[M:3/4] z A .A2 Dc | z F .F2 FF | z F .F2 Dd | z [EG] [EG] .[EG]3 | z G .G2 cc | z F .F2 FF | %22
 z =G .G2 Gd | z [GA] [GA] .[GA]3 | z A .A2 Dc | z F .F2 FF | %26
[M:15/16] DF/-F/F z =A/-A/[FAd]-[FAd]3/2 |[M:3/4] [B,B]6 | [Dc]3 .[=A,=A]3 | [Dd]3 [A,A]3 | %30
 [B,B]3 .[Cc]3 | [Dd]6 |] %32
V:4
 x6 | x6 | x6 | x6 | x6 | x6 | x6 | x6 | x6 | x6 | x6 | x6 | x6 | x6 | x6 |[M:7/8] x7 | %16
[M:3/4][K:treble] D4[K:bass] z2[K:treble] | B,3 A,3 | A,4 z2 | x[K:bass] x5 | C3 .E3 | B,3 A,3 | %22
 B,2 C4 | x[K:bass] x5 | D4[K:bass] z2[K:treble] | B,3 A,3 | %26
[M:15/16][K:bass] [D,,D,]3 [F,,F,]3/2- [F,,F,]3 |[M:3/4] x6 | [=A,,,=A,,]3 [A,,,A,,]3 | %29
 [D,,D,]3[K:treble][K:bass] [D,,D,]3 | [E,,E,]3 [B,,,A,,]3[K:treble] | [D,,D,]6[K:treble] |] %32

